assets/icons/standard/service_appointment.svg

<svg xmlns="http://www.w3.org/2000/svg" width="100" height="100" viewBox="0 0 100 100"><rect x="60.31" y="60.99" width="5.48" height="5.48" rx="0.91" ry="0.91" fill="#fff"/><rect x="60.31" y="70.12" width="5.48" height="5.48" rx="0.91" ry="0.91" fill="#fff"/><rect x="51.17" y="60.99" width="5.48" height="5.48" rx="0.91" ry="0.91" fill="#fff"/><rect x="51.17" y="70.12" width="5.48" height="5.48" rx="0.91" ry="0.91" fill="#fff"/><rect x="42.03" y="60.99" width="5.48" height="5.48" rx="0.91" ry="0.91" fill="#fff"/><rect x="42.03" y="70.12" width="5.48" height="5.48" rx="0.91" ry="0.91" fill="#fff"/><path d="M71.83,20H28.3A8.11,8.11,0,0,0,20,27.81V72.19A8.08,8.08,0,0,0,28.16,80h5.9a3.62,3.62,0,0,1-.4-1.66V56A1.41,1.41,0,0,1,35,54.6H72.51A1.41,1.41,0,0,1,73.88,56V78.34a3.62,3.62,0,0,1-.31,1.47A8,8,0,0,0,80,72.19V27.81C80.14,23.56,76.42,20,71.83,20ZM30.78,36.1A2.85,2.85,0,0,1,28,33.35V30.6a2.85,2.85,0,0,1,2.76-2.75H44.85a2.85,2.85,0,0,1,2.76,2.75v2.75a2.85,2.85,0,0,1-2.76,2.75Zm43.1,14.14a1.41,1.41,0,0,1-1.37,1.37H35a1.41,1.41,0,0,1-1.37-1.37V48a3.67,3.67,0,0,1,3.66-3.65h4.57V42.48a2.74,2.74,0,0,1,5.48,0V44.3h12.8V42.48a2.74,2.74,0,0,1,5.48,0V44.3h4.57A3.67,3.67,0,0,1,73.88,48Z" fill="#fff" fill-rule="evenodd"/></svg>

<?xml version="1.0"?><svg xmlns="http://www.w3.org/2000/svg" width="100" height="100" viewBox="0 0 100 100"><title></title><rect x="60.31" y="60.99" width="5.48" height="5.48" rx="0.91" ry="0.91" fill="#fff"></rect><rect x="60.31" y="70.12" width="5.48" height="5.48" rx="0.91" ry="0.91" fill="#fff"></rect><rect x="51.17" y="60.99" width="5.48" height="5.48" rx="0.91" ry="0.91" fill="#fff"></rect><rect x="51.17" y="70.12" width="5.48" height="5.48" rx="0.91" ry="0.91" fill="#fff"></rect><rect x="42.03" y="60.99" width="5.48" height="5.48" rx="0.91" ry="0.91" fill="#fff"></rect><rect x="42.03" y="70.12" width="5.48" height="5.48" rx="0.91" ry="0.91" fill="#fff"></rect><path d="m71.8 20h-43.5a8.1 8.1 0 0 0-8.3 7.8v44.4a8.1 8.1 0 0 0 8.2 7.8h5.9a3.6 3.6 0 0 1-0.4-1.7v-22.3a1.4 1.4 0 0 1 1.3-1.4h37.5a1.4 1.4 0 0 1 1.4 1.4v22.3a3.6 3.6 0 0 1-0.3 1.5 8 8 0 0 0 6.4-7.6v-44.4c0.1-4.2-3.6-7.8-8.2-7.8z m-41 16.1a2.9 2.9 0 0 1-2.8-2.7v-2.8a2.9 2.9 0 0 1 2.8-2.7h14a2.9 2.9 0 0 1 2.8 2.7v2.8a2.9 2.9 0 0 1-2.8 2.7z m43.1 14.1a1.4 1.4 0 0 1-1.4 1.4h-37.5a1.4 1.4 0 0 1-1.4-1.4v-2.2a3.7 3.7 0 0 1 3.7-3.6h4.6v-1.9a2.7 2.7 0 0 1 5.4 0v1.8h12.8v-1.8a2.7 2.7 0 0 1 5.5 0v1.8h4.6a3.7 3.7 0 0 1 3.7 3.7z" fill="#fff" fill-rule="evenodd"></path></svg>
